X:1
T:Title
%%score [ ( 1 2 ) ( 3 4 ) ] { ( 5 7 ) | 6 }
L:1/8
Q:1/4=120
M:6/8
K:Fmin
V:1 treble nm="Soprano" snm="S"
V:2 treble 
V:3 bass nm="Bass" snm="B"
V:4 bass 
V:5 treble nm="MusicXML Part"
V:7 treble 
V:6 bass 
V:1
 z6 |!f!"^Sopranos & Altos" ccc c>BA | BAG A2 F |[M:3/8] z3 |[M:6/8] c>cc- cBc | e=dB c2 G | %6
w: ||||||
w: |Can- ta- te Do- mi- no|can- ti- cum no- vum||quon- i- am _ mi- ra-|bi- li- a fe- cit|
w: ||||||
 AGF G2 E | BAG A2 F |[M:3/8] z z c |[M:6/8] ccc [c=d]2 [cd] | [c=e]3 [ce]3- |[M:3/8] [ce] z z || %12
w: ||||||
w: sal- va- vit si- bi|dex- te- ra ei- us|et|bra- chi- um sanc- tam|ei- us.|_|
w: ||||||
[M:6/8] z6 | z6 |!mf!"^unison" F2 G (AG)F | c2 c c3- | c6- | c6 |"^sim." F2 G (AG)F | c2 c c3- | %20
w: ||Ju- bi- la- * te|Do- mi- no|_||Ju- bi- la- * te|Do- mi- no|
w: ||||||||
w: ||Ju- bi- la- * te|Do- mi- no|||Ju- bi- la- * te|Do- mi- no|
 c6- | c6 | z z d BGB | c2 c AFA | [G=d][Gd][Gd]- [Gd]3- | [Gd]3- [Gd] z z | z6 | z6 | G2 A (BA)G | %29
w: _||||||||Ju- bi- la- * te|
w: ||can- ta- te et|e- xul- ta- te et|psal- li- te. _|_ _||||
w: ||||||||Ju- bi- la- * te|
 e2 e e3- | e6- | e6 | G2 A (BA)G | =e2 e e3- | e6- | e6 | F2 G (AG)F | c2 c c3- | c6- | c6 | %40
w: Do- mi- no|_||Ju- bi- la- * te|Do- mi- no|_||Ju- bi- la- * te|Do- mi- no|_||
w: |||||||||||
w: Do- mi- no|||Ju- bi- la- * te|Do- mi- no|||Ju- bi- la- * te|Do- mi- no|||
 ddd BGB | c2 c AFA | BBB (GA)B | c3 c3- | c3 z3 | ddd BGB | ccc AFA | BBB (=AB)c | %48
w: ||||||||
w: Psal- li- te Do- mi- no|in ci- tha- ra, ci-|tha- ra et vo- * ce|psal- mi.|_|Psal- li- te De- us in|tu- bis duc- ti- li- bus|et vo- ce tu- * bae|
w: ||||||||
 [=B=d]3 [Bd]3- | [Bd]3 z2 z/ x/ | z6 | z6 | G2 A (BA)G | e2 e e3- | e6- | e6 | G2 A (BA)G | %57
w: ||||Ju- bi- la- * te|Do- mi- no|_||Ju- bi- la- * te|
w: cor- nae|_||||||||
w: ||||Ju- bi- la- * te|Do- mi- no|||Ju- bi- la- * te|
 =e2 e e3- | e6- | e6 | F2 G (AG)F | c2 c c3- | c6- | c6 |!mp! F2 G (AG)F | c2 c c3- | c6- | c6 | %68
w: Do- mi- no|_||Ju- bi- la- * te|Do- mi- no|_||Ju- bi- la- * te|Do- mi- no|_||
w: |||||||||||
w: Do- mi- no|||Ju- bi- la- * te|Do- mi- no|||Ju- bi- la- * te|Do- mi- no|||
!mf! c2 c cc z | z6 | c2 c cc z | z6 |!<(! c3 c3 | c3 c3!<)! |!f! [=Af]6- | [Af] z z z3 |] %76
w: ||||||||
w: Ju- bi- la- te||in con- spec- tu||re- gis|Do- mi-|ni|_|
w: ||||||||
V:2
 x6 | x6 | x6 |[M:3/8] x3 |[M:6/8] x6 | x6 | x6 | x6 |[M:3/8] x3 |[M:6/8] x6 | x6 |[M:3/8] x3 || %12
w: ||||||||||||
w: ||||||||||||
w: ||||||||||||
[M:6/8] x6 | x6 | x6 | x6 | B3"^div." A3 | G3 F3 | x6 | x6 | B3 A3 | G3 F3 | x6 | x6 | x6 | x6 | %26
w: ||||||||||||||
w: ||||||||||||||
w: ||||om- nis|ter- ra!|||om- nis|ter- ra!|||||
 x6 | x6 | x6 | x6 | d3 c3 | B3 A3 | x6 | x6 | c3 B3 | A3 G3 | x6 | x6 | B3 A3 | G3 F3 | x6 | x6 | %42
w: ||||||||||||||||
w: ||||||||||||||||
w: ||||om- nis|ter- ra!|||om- nis|ter- ra|||om- nis|ter- ra!|||
 x6 | x6 | x6 | x6 | x6 | x6 | x6 | x6 | x6 | x6 | x6 | x6 | d3 c3 | B3 A3 | x6 | x6 | c3 B3 | %59
w: |||||||||||||||||
w: |||||||||||||||||
w: ||||||||||||om- nis|ter- ra!|||om- nis|
 A3 G3 | x6 | x6 | B3 A3 | G3 F3 | x6 | x6 | B3 A3 | G3 F3 | A2 A BB x | x6 | A2 A BB x | x6 | x6 | %73
w: ||||||||||||||
w: ||||||||||||||
w: ter- ra!|||om- nis|ter- ra!|||om- nis|ter- ra!||||||
 x6 | x6 | x6 |] %76
w: |||
w: |||
w: |||
V:3
 z6 |!f!"^Tenors & Basses" CCC C>B,A, | B,A,G, A,2 F, |[M:3/8] z3 |[M:6/8] C>CC- CB,C | %5
w: |||||
w: |||||
 E=DB, C2 G, | A,G,F, G,2 E, | B,A,G, A,2 F, |[M:3/8] z z C |[M:6/8] CCC [C=D]2 [CD] | %10
w: |||||
w: |||||
 [C=E]3 [CE]3- |[M:3/8] [CE] z z ||[M:6/8] z6 | z6 |!mf!"^unison" F,2 G, (A,G,)F, | C2 C C3- | %16
w: ||||Ju- bi- la- * te|Do- mi- no|
w: ||||Ju- bi- la- * te|Do- mi- no|
 C6- | C6 |"^sim." F,2 G, (A,G,)F, | C2 C C3- | C6- | C6 | z z D B,G,B, | C2 C A,F,A, | %24
w: _||Ju- bi- la- * te|Do- mi- no|_||||
w: ||Ju- bi- la- * te|Do- mi- no|||||
 [G,=B,][G,B,][G,B,]- [G,B,]3- | [G,B,]3- [G,B,] z z | z6 | z6 | G,2 A, (B,A,)G, | E2 E E3- | E6- | %31
w: ||||Ju- bi- la- * te|Do- mi- no|_|
w: ||||Ju- bi- la- * te|Do- mi- no||
 E6 | G,2 A, (B,A,)G, | =E2 E E3- | E6- | E6 | F,2 G, (A,G,)F, | C2 C C3- | C6- | C6 | DDD B,G,B, | %41
w: |Ju- bi- la- * te|Do- mi- no|_||Ju- bi- la- * te|Do- mi- no|_|||
w: |Ju- bi- la- * te|Do- mi- no|||Ju- bi- la- * te|Do- mi- no||||
 C2 C A,F,A, | B,B,B, (G,A,)B, | C3 C3- | C3 z3 | DDD B,G,B, | CCC A,F,A, | B,B,B, (=A,B,)C | %48
w: |||||||
w: |||||||
 [=B,=D]3 [B,D]3- | [B,D]3 z3 | z6 | z6 | G,2 A, (B,A,)G, | E2 E E3- | E6- | E6 | G,2 A, (B,A,)G, | %57
w: ||||Ju- bi- la- * te|Do- mi- no|_||Ju- bi- la- * te|
w: ||||Ju- bi- la- * te|Do- mi- no|||Ju- bi- la- * te|
 =E2 E E3- | E6- | E6 | F,2 G, (A,G,)F, | C2 C C3- | C6- | C6 |!mp! F,2 G, (A,G,)F, | C2 C C3- | %66
w: Do- mi- no|_||Ju- bi- la- * te|Do- mi- no|_||Ju- bi- la- * te|Do- mi- no|
w: Do- mi- no|||Ju- bi- la- * te|Do- mi- no|||Ju- bi- la- * te|Do- mi- no|
 C6- | C6 |!mf! C2 C CC z | z6 | C2 C CC z | z6 |!<(! [C,C]3 [C,C]3 | [C,C]3 [C,C]3!<)! | %74
w: _||||||||
w: ||||||||
!f! [F,C]6- | [F,C] z z z3 |] %76
w: ||
w: ||
V:4
 x6 | x6 | x6 |[M:3/8] x3 |[M:6/8] x6 | x6 | x6 | x6 |[M:3/8] x3 |[M:6/8] x6 | x6 |[M:3/8] x3 || %12
w: ||||||||||||
w: ||||||||||||
[M:6/8] x6 | x6 | x6 | x6 | B,3"^div." A,3 | G,3 F,3 | x6 | x6 | B,3 A,3 | G,3 F,3 | x6 | x6 | x6 | %25
w: |||||||||||||
w: ||||om- nis|ter- ra!|||om- nis|ter- ra!||||
 x6 | x6 | x6 | x6 | x6 | D3 C3 | B,3 A,3 | x6 | x6 | C3 B,3 | A,3 G,3 | x6 | x6 | B,3 A,3 | %39
w: ||||||||||||||
w: |||||om- nis|ter- ra!|||om- nis|ter- ra!|||om- nis|
 G,3 F,3 | x6 | x6 | x6 | x6 | x6 | x6 | x6 | x6 | x6 | x6 | x6 | x6 | x6 | x6 | D3 C3 | B,3 A,3 | %56
w: |||||||||||||||||
w: ter- ra!|||||||||||||||om- nis|ter- ra!|
 x6 | x6 | C3 B,3 | A,3 G,3 | x6 | x6 | B,3 A,3 | G,3 F,3 | x6 | x6 | B,3 A,3 | G,3 F,3 | %68
w: ||||||||||||
w: ||om- nis|ter- ra!|||om- nis|ter- ra!|||om- nis|ter- ra!|
 F,2 F, C,C, x | x6 | F,2 F, C,C, x | x6 | x6 | x6 | x6 | x6 |] %76
w: ||||||||
w: ||||||||
V:5
!f! !>![ff']3 !>![ff']3- | [ff']6- | [ff']6 |[M:3/8] !>![ff']3- |[M:6/8] [ff']6- | %5
 [ff']3- [ff']2 z | !>![Acea]3 !>![EGBe]3 | !>![GB=dg]3 !>![DFA_d]3 |[M:3/8] !>![Gc=eg]3- | %9
[M:6/8] [Gceg]3 !>![Gc=dg]3 | !>![Gc=eg]3 !>![Gceg]3- |[M:3/8] [Gceg] z z || %12
[M:6/8] z/ [FA]C/[FA] z Gc | z/ [FA]C/[FA] z GC | z/ [FA]C/[FA] z Gc | z/ [FA]C/[FA] z GC | %16
 z/ [FA]C/[FA] z Gc | z/ [FA]C/[FA] z GC | z/ [FA]C/[FA] z Gc | z/ [FA]C/[FA] z GC | %20
 z/ [FA]C/[FA] z Gc | z/ [FA]C/[FA] z GC | z/ [Bd]F/[Bd] [GB]E[GB] | z/ [Ac]E/[Ac] [FA]D[FA] | %24
 [G=B][=DG][GB] [DG][GB][DG] | [G=B][=DG][GB] [DG][GB][DG] | z/ [GB]E/[GB] z Ad | %27
 z/ [GB]E/[GB] z Ad | z/ [GB]E/[GB] z Ad | z/ [GB]E/[GB] z Ad | z/ [GB]E/[GB] z Ad | %31
 z/ [GB]E/[GB] z Ad | z/ [GB]E/[GB] z Ad | z/ [c=e]G/[ce] z =dg | z/ [c=e]G/[ce] z =dg | %35
 z/ [c=e]G/[ce] z =dg | z/ [FA]C/[FA] z Gc | z/ [FA]C/[FA] z GC | z/ [FA]C/[FA] z Gc | %39
 z/ [FA]C/[FA] z GC | z/ [Bd]F/[Bd] [GB]E[GB] | z/ [Ac]E/[Ac] [FA]D[FA] | %42
 z/ [GB]=D/[GB] [=EG]C[EG] | z/ [FA]C/[FA] z GC | z/ [FA]C/[FA] z Gc | z/ [Bd]F/[Bd] [GB]E[GB] | %46
 z/ [Ac]E/[Ac] [FA]D[FA] | z/ [GB]=D/[GB] [^F=A]D[FA] | [G=B][=DG][GB] [DG][GB][DG] | %49
 [G=B][=DG][GB] [DG][GB][DG] | z/ [GB]E/[GB] z Ad | z/ [GB]E/[GB] z Ad | z/ [GB]E/[GB] z Ad | %53
 z/ [GB]E/[GB] z Ad | z/ [GB]E/[GB] z Ad | z/ [GB]E/[GB] z Ad | z/ [GB]E/[GB] z Ad | %57
 z/ [c=e]G/[ce] z =dg | z/ [c=e]G/[ce] z =dg | z/ [c=e]G/[ce] z =dg | z/ [FA]C/[FA] z Gc | %61
 z/ [FA]C/[FA] z GC | z/ [FA]C/[FA] z Gc | z/ [FA]C/[FA] z GC | z/ [FA]C/[FA] z Gc | %65
 z/ [FA]C/[FA] z GC | z/ [FA]C/[FA] z Gc | z/ [FA]C/[FA] z GC | z/ [FA]C/[FA] z Gc | %69
 !>![ff']3 !>![ff']3 | z/ [FA]C/[FA] z Gc | !>![ff']3 !>![ff']3 | z/ [FA]C/[FA] z Gc | %73
 z/ [FA]C/[FA] z GC | %74
 !>![F=A]/!>!C/!>![FA]/!>!C/!>![FA]/!>!C/ !>![FA]/!>!C/!>![FA]/!>!C/!>![FA]/!>!C/ | %75
 !>!.[F=Acf] z z z3 |] %76
V:6
"^Pedal freely" !>![F,,,F,,]3 !>![F,,,F,,]3- | [F,,,F,,]6- | [F,,,F,,]6 |[M:3/8] !>![F,,,F,,]3- | %4
[M:6/8] [F,,,F,,]6- | [F,,,F,,]3- [F,,,F,,]2 !>![C,,C,] | !>![A,,,A,,]3 !>![E,,E,]3 | %7
 !>![G,,,G,,]3 !>![D,,D,]3 |[M:3/8] !>![C,,C,]2 !>![C,C] | %9
[M:6/8] !>![C,C]!>![B,,B,]!>![A,,A,] !>![G,,G,]!>![F,,F,]!>![=D,,=D,] | !>![C,,C,]3 !>![C,,C,]3- | %11
[M:3/8] [C,,C,] z z ||[M:6/8]!mf! F,3 C,3 | F,,3 C,3 | F,3 C,3 | F,,3 C,3 | F,3 C,3 | F,,3 C,3 | %18
 F,3 C,3 | F,,3 C,3 | F,3 C,3 | F,,3 C,3 | B,,3 E,3 | A,,3 D,3 | [G,,G,]3- [G,,G,][F,,F,][E,,E,] | %25
 [D,,=D,][C,,C,][=B,,,=B,,] [A,,,A,,][G,,,G,,][F,,,F,,] | [E,,,E,,]3 B,,3 | E,,3 B,,3 | E,,3 B,,3 | %29
 E,,3 B,,3 | E,,3 B,,3 | E,,3 B,,3 | E,,3 B,,3 | C,,3 G,,3 | C,3 G,,3 | C,,3 G,,3 | F,,3 C,3 | %37
 F,3 C,3 | F,3 C,3 | F,,3 C,3 | B,,3 E,3 | A,,3 D,3 | G,,3 C,3 | F,3 C,3 | F,3 C,3 | B,,3 E,3 | %46
 A,,3 D,3 | G,,3 =D,3 | [G,,G,]3- [G,,G,][=F,,=F,][E,,E,] | %49
 [D,,=D,][C,,C,][=B,,,=B,,] [A,,,A,,][G,,,G,,][F,,,F,,] | [E,,,E,,]3 B,,3 | E,,3 B,,3 | E,,3 B,,3 | %53
 E,,3 B,,3 | E,,3 B,,3 | E,,3 B,,3 | E,,3 B,,3 | C,,3 G,,3 | C,3 G,,3 | C,,3 G,,3 | F,3 C,3 | %61
 F,,3 C,3 | F,3 C,3 | F,,3 C,3 |!mp! F,3 C,3 | F,,3 C,3 | F,3 C,3 | F,,3 C,3 |!mf! F,,3 C,3 | %69
!f! !>![F,,,F,,]3 !>![F,,,F,,]3 |!mf! F,3 C,3 |!f! !>![F,,,F,,]3 !>![F,,,F,,]3 |!mf!!<(! F,,3 C,3 | %73
 F,3 C,3!<)! |!f! !>![F,,F,]3 !>![C,,C,]3 | !>![F,,,F,,] z z z3 |] %76
V:7
 x6 | x6 | x6 |[M:3/8] x3 |[M:6/8] x6 | x6 | x6 | x6 |[M:3/8] x3 |[M:6/8] x6 | x6 |[M:3/8] x3 || %12
[M:6/8] x4 E2 | x4 E2 | x4 E2 | x4 E2 | x4 E2 | x4 E2 | x4 E2 | x4 E2 | x4 E2 | x4 E2 | x6 | x6 | %24
 x6 | x6 | x4 F2 | x4 F2 | x4 F2 | x4 F2 | x4 F2 | x4 F2 | x4 F2 | x4 B2 | x4 B2 | x4 B2 | x4 E2 | %37
 x4 E2 | x4 E2 | x4 E2 | x6 | x6 | x6 | x4 E2 | x4 E2 | x6 | x6 | x6 | x6 | x6 | x4 F2 | x4 F2 | %52
 x4 F2 | x4 F2 | x4 F2 | x4 F2 | x4 F2 | x4 B2 | x4 B2 | x4 B2 | x4 E2 | x4 E2 | x4 E2 | x4 E2 | %64
 x4 E2 | x4 E2 | x4 E2 | x4 E2 | x4 E2 | x6 | x4 E2 | x6 | x4 E2 | x4 E2 | x6 | x6 |] %76

